X: 2732
T:Over The Water To Charlie. HSJJ.179
M:6/8
L:1/8
Q:110
S:HSJ Jackson,Wyresdale,Lancs.1823
R:Jig
O:England
A:Lancashire
H:1823
Z:Chris Partington.
K:D
A2A A>BG|FGE D>EG|A>BA AFA|B3d3|D2D DEF|GAFE2D|!dcB AFA|B3d3:|
|:d2e fgf|efd ecA|d2e fgf|e3A3|!d2e fgf|efd ecA|B/c/dB AFA|B3d3:|
|:AFD AFD|BGE BGE|!AFD EFA|B3d3|AFD dAF|GAFE2D|fed AFA|B3d3:|
|:dfd dfd|ecA acA|!dfd dfd|e3A3|dfd afd|(c/d/ec) ecA|(B/c/dB) AFA|B3d3:|
